X: 33421
T: Quilty, The
R: hornpipe
M: 4/4
K: Dmajor
(3BAG|:FAde (3fgf ef|gfed (3Bcd AG|FAde fd (3dcd|ba (3afd ~e2 (3BAG|
FAde ff (3efa|gfed (3Bcd AG|(3FGA (3def eAce|1 d2 dc dA (3BAG:|2 d2 dc da (3gfe||
|:fdcd BdAG|(3FGA de fd (3dcd|bfaf gfeA|BeeA (3Bcd (3efg|
fdcd ~B2AG|(3FGA de fd (3dcd|bfaf gfed|1 (3cBA Bc da (3gfe:|2 (3cBA Bc dA (3BAG||

